X: 17917
T: House Of Letterfourie, The
R: reel
M: 4/4
K: Dmajor
B||ADFD EB,B,B|ADFA d2 df|gfed eBBd|ADFA d2 dB|
ADFD EB,B,B|ADFA d2 df|gfed eBBd|ADFA d2 df||
egfa beeg|df (3efg fdec|dBAF EFGB|ADFA d2 df|
egfa beeg|df (3efg fdec|dBAF EFGB|ADFA d2 d||

